svg/transport/flight_takeoff_fill.svg

<?xml version="1.0" encoding="UTF-8"?>
<svg width="24px" height="24px" viewBox="0 0 24 24" version="1.1" xmlns="http://www.w3.org/2000/svg" xmlns:xlink="http://www.w3.org/1999/xlink">
    <title>flight_takeoff_fill</title>
    <g id="页面-1" stroke="none" stroke-width="1" fill="none" fill-rule="evenodd">
        <g id="Transport" transform="translate(-624.000000, -48.000000)" fill-rule="nonzero">
            <g id="flight_takeoff_fill" transform="translate(624.000000, 48.000000)">
                 <path d="M24,0 L24,24 L0,24 L0,0 L24,0 Z M12.5934901,23.257841 L12.5819402,23.2595131 L12.5108777,23.2950439 L12.4918791,23.2987469 L12.4918791,23.2987469 L12.4767152,23.2950439 L12.4056548,23.2595131 C12.3958229,23.2563662 12.3870493,23.2590235 12.3821421,23.2649074 L12.3780323,23.275831 L12.360941,23.7031097 L12.3658947,23.7234994 L12.3769048,23.7357139 L12.4804777,23.8096931 L12.4953491,23.8136134 L12.4953491,23.8136134 L12.5071152,23.8096931 L12.6106902,23.7357139 L12.6232938,23.7196733 L12.6232938,23.7196733 L12.6266527,23.7031097 L12.609561,23.275831 C12.6075724,23.2657013 12.6010112,23.2592993 12.5934901,23.257841 L12.5934901,23.257841 Z M12.8583906,23.1452862 L12.8445485,23.1473072 L12.6598443,23.2396597 L12.6498822,23.2499052 L12.6498822,23.2499052 L12.6471943,23.2611114 L12.6650943,23.6906389 L12.6699349,23.7034178 L12.6699349,23.7034178 L12.678386,23.7104931 L12.8793402,23.8032389 C12.8914285,23.8068999 12.9022333,23.8029875 12.9078286,23.7952264 L12.9118235,23.7811639 L12.8776777,23.1665331 C12.8752882,23.1545897 12.8674102,23.1470016 12.8583906,23.1452862 L12.8583906,23.1452862 Z M12.1430473,23.1473072 C12.1332178,23.1423925 12.1221763,23.1452606 12.1156365,23.1525954 L12.1099173,23.1665331 L12.0757714,23.7811639 C12.0751323,23.7926639 12.0828099,23.8018602 12.0926481,23.8045676 L12.108256,23.8032389 L12.3092106,23.7104931 L12.3186497,23.7024347 L12.3186497,23.7024347 L12.3225043,23.6906389 L12.340401,23.2611114 L12.337245,23.2485176 L12.337245,23.2485176 L12.3277531,23.2396597 L12.1430473,23.1473072 Z" id="MingCute" fill-rule="nonzero"></path>
                <path d="M21.0001,20 C21.5524,20 22.0001,20.4477 22.0001,21 C22.0001,21.51285 21.614073,21.9355092 21.1167239,21.9932725 L21.0001,22 L3.00008,22 C2.44779,22 2.00008,21.5523 2.00008,21 C2.00008,20.48715 2.38611566,20.0644908 2.8834579,20.0067275 L3.00008,20 L21.0001,20 Z M7.93041,4.17678 L14.492975,9.53711375 L14.492975,9.53711375 L19.0655,8.68222 C20.1891,8.47192 21.3346,8.91842 22.0194,9.83365 L22.1805778,10.0527357 C22.3605123,10.3095728 22.4965889,10.5770333 22.4262,10.9212 C22.205,12.002 21.3922,12.8651 20.3266,13.1506 L5.20745,17.2017 C4.59963,17.3646 3.95476,17.1308 3.59258,16.6162 L0.929819,12.8329 C0.72978,12.5486 0.873576,12.1521 1.20929,12.0621 L2.83331,11.627 C3.31775,11.4972 3.83501,11.6181 4.21174,11.9491 L4.95832,12.6052 L4.96856,12.607 L4.96856,12.607 L9.16743,10.9666 C9.17376,10.9641 9.17583,10.9562 9.17152,10.9509 L4.44679,5.19599 C4.21618,4.9151 4.35278,4.48982 4.70382,4.39576 L6.59315,3.88951 C7.05916,3.76464 7.55679,3.87154 7.93041,4.17678 Z" id="形状" fill="#09244B"></path>
            </g>
        </g>
    </g>
</svg>

<svg xmlns="http://www.w3.org/2000/svg" width="24" height="24"><g fill="none" fill-rule="nonzero"><path d="M24 0v24H0V0h24ZM12.593 23.258l-.011.002-.071.035-.02.004-.014-.004-.071-.035c-.01-.004-.019-.001-.024.005l-.004.01-.017.428.005.02.01.013.104.074.015.004.012-.004.104-.074.012-.016.004-.017-.017-.427c-.002-.01-.009-.017-.017-.018Zm.265-.113-.013.002-.185.093-.01.01-.003.011.018.43.005.012.008.007.201.093c.012.004.023 0 .029-.008l.004-.014-.034-.614c-.003-.012-.01-.02-.02-.022Zm-.715.002a.023.023 0 0 0-.027.006l-.006.014-.034.614c0 .012.007.02.017.024l.015-.002.201-.093.01-.008.004-.011.017-.43-.003-.012-.01-.01-.184-.092Z"/><path fill="#09244B" d="M21 20a1 1 0 0 1 .117 1.993L21 22H3a1 1 0 0 1-.117-1.993L3 20h18ZM7.93 4.177l6.563 5.36 4.573-.855a3 3 0 0 1 2.953 1.152l.162.219c.18.257.316.524.245.868a2.913 2.913 0 0 1-2.1 2.23L5.208 17.2a1.5 1.5 0 0 1-1.614-.585L.93 12.833a.5.5 0 0 1 .28-.77l1.623-.436a1.5 1.5 0 0 1 1.379.322l.746.656.01.002 4.2-1.64a.01.01 0 0 0 .004-.016L4.447 5.196a.5.5 0 0 1 .257-.8l1.89-.506a1.5 1.5 0 0 1 1.336.287Z"/></g></svg>
